public/svgs/solid/grip-lines.svg

<svg xmlns="http://www.w3.org/2000/svg" viewBox="0 0 448 512"><!--! Font Awesome Pro 6.5.1 by @fontawesome - https://fontawesome.com License - https://fontawesome.com/license (Commercial License) Copyright 2023 Fonticons, Inc. --><path d="M32 288c-17.7 0-32 14.3-32 32s14.3 32 32 32l384 0c17.7 0 32-14.3 32-32s-14.3-32-32-32L32 288zm0-128c-17.7 0-32 14.3-32 32s14.3 32 32 32l384 0c17.7 0 32-14.3 32-32s-14.3-32-32-32L32 160z"/></svg>

<svg xmlns="http://www.w3.org/2000/svg" viewBox="0 0 448 512"><!-- Font Awesome Pro 6.0.0-alpha2 by @fontawesome - https://fontawesome.com License - https://fontawesome.com/license (Commercial License) --><path d="M416 288H32C14.4 288 0 302.4 0 320V320C0 337.6 14.4 352 32 352H416C433.6 352 448 337.6 448 320V320C448 302.4 433.6 288 416 288ZM416 160H32C14.4 160 0 174.4 0 192V192C0 209.6 14.4 224 32 224H416C433.6 224 448 209.6 448 192V192C448 174.4 433.6 160 416 160Z"/></svg>
